build/img/number-1700.svg

<svg width="191" height="74" viewBox="0 0 191 74" fill="none" xmlns="http://www.w3.org/2000/svg">
<path opacity="0.48" d="M28.0586 73H14.1914V18.7031L0.666016 23.9277V12.4043L26.5938 1.80859H28.0586V73ZM89.9238 9.86523L67.4629 73H52.8633L75.4219 13.3809H46.9062V1.90625H89.9238V9.86523ZM140.119 43.6055C140.119 53.4362 138.329 60.9557 134.748 66.1641C131.2 71.3724 126.122 73.9766 119.514 73.9766C112.971 73.9766 107.909 71.4538 104.328 66.4082C100.78 61.3301 98.9408 54.071 98.8105 44.6309V31.2031C98.8105 21.4049 100.585 13.918 104.133 8.74219C107.681 3.53385 112.775 0.929688 119.416 0.929688C126.057 0.929688 131.151 3.5013 134.699 8.64453C138.247 13.7878 140.054 21.1283 140.119 30.666V43.6055ZM126.252 29.2012C126.252 23.6022 125.699 19.403 124.592 16.6035C123.485 13.804 121.76 12.4043 119.416 12.4043C115.021 12.4043 112.743 17.5312 112.58 27.7852V45.5098C112.58 51.2389 113.133 55.5033 114.24 58.3027C115.38 61.1022 117.137 62.502 119.514 62.502C121.76 62.502 123.42 61.1999 124.494 58.5957C125.601 55.959 126.187 51.9388 126.252 46.5352V29.2012ZM190.705 43.6055C190.705 53.4362 188.915 60.9557 185.334 66.1641C181.786 71.3724 176.708 73.9766 170.1 73.9766C163.557 73.9766 158.495 71.4538 154.914 66.4082C151.366 61.3301 149.527 54.071 149.396 44.6309V31.2031C149.396 21.4049 151.171 13.918 154.719 8.74219C158.267 3.53385 163.361 0.929688 170.002 0.929688C176.643 0.929688 181.737 3.5013 185.285 8.64453C188.833 13.7878 190.64 21.1283 190.705 30.666V43.6055ZM176.838 29.2012C176.838 23.6022 176.285 19.403 175.178 16.6035C174.071 13.804 172.346 12.4043 170.002 12.4043C165.607 12.4043 163.329 17.5312 163.166 27.7852V45.5098C163.166 51.2389 163.719 55.5033 164.826 58.3027C165.965 61.1022 167.723 62.502 170.1 62.502C172.346 62.502 174.006 61.1999 175.08 58.5957C176.187 55.959 176.773 51.9388 176.838 46.5352V29.2012Z" fill="#E8E8E8"/>
</svg>

<svg width="191" height="74" fill="none" xmlns="http://www.w3.org/2000/svg"><path opacity=".48" d="M28.059 73H14.19V18.703L.666 23.928V12.404L26.594 1.81h1.465V73zM89.924 9.865L67.463 73h-14.6l22.559-59.62H46.906V1.907h43.018v7.96zm50.195 33.74c0 9.831-1.79 17.35-5.371 22.56-3.548 5.207-8.626 7.812-15.234 7.812-6.543 0-11.605-2.523-15.186-7.569-3.548-5.078-5.387-12.337-5.517-21.777V31.203c0-9.798 1.774-17.285 5.322-22.46 3.548-5.21 8.642-7.813 15.283-7.813s11.735 2.571 15.283 7.715c3.548 5.143 5.355 12.483 5.42 22.021v12.94zm-13.867-14.404c0-5.599-.553-9.798-1.66-12.598-1.107-2.799-2.832-4.199-5.176-4.199-4.395 0-6.673 5.127-6.836 15.381V45.51c0 5.729.553 9.993 1.66 12.793 1.14 2.8 2.897 4.199 5.274 4.199 2.246 0 3.906-1.302 4.98-3.906 1.107-2.637 1.693-6.657 1.758-12.06V29.2zm64.453 14.404c0 9.831-1.79 17.35-5.371 22.56-3.548 5.207-8.626 7.812-15.234 7.812-6.543 0-11.605-2.523-15.186-7.569-3.548-5.078-5.387-12.337-5.518-21.777V31.203c0-9.798 1.775-17.285 5.323-22.46 3.548-5.21 8.642-7.813 15.283-7.813s11.735 2.571 15.283 7.715c3.548 5.143 5.355 12.483 5.42 22.021v12.94zm-13.867-14.404c0-5.599-.553-9.798-1.66-12.598-1.107-2.799-2.832-4.199-5.176-4.199-4.395 0-6.673 5.127-6.836 15.381V45.51c0 5.729.553 9.993 1.66 12.793 1.139 2.8 2.897 4.199 5.274 4.199 2.246 0 3.906-1.302 4.98-3.906 1.107-2.637 1.693-6.657 1.758-12.06V29.2z" fill="#E8E8E8"/></svg>
